!!!!SEGMENT: pl-cz--iii-109--007_dankowski-adalbert--missa-c-agnus-dei.krn
!!!cenid: 18xx:786
!!!COM: Dankowski, Adalbert
!!!COM-rismid: pe30000793
!!!CDT: ~1760-~1836
!!!CNT: Polish
!!!OPR: Missa C
!!!OTL: Agnus Dei
!!!OMV: 007
!!!PDT:
!!!AGN: Sacred; Vespers
!!!SMS-siglum: PL-CZ
!!!SMS-shelfmark: III-109
!!!SMS-shelfwork: 001-007 M
!!!SMS-variant:
!!!SMS-altvar:
!!!NIFC-rismid: 300000107
!!!URL-scan: http://repozytorium.nifc.pl/skany/pl-cz-nut--iii-109
!!!ONB-nifc: UWAGA: części Mszy: Kyrie, Gloria, Patrem, Et resurrexit, Sanctus, Benedictus, Agnus Dei, Dona nobis
!!!key: C
**kern	**fba	**dynam	**kern	**dynam	**kern	**dynam	**kern	**text	**kern	**text	**kern	**text	**kern	**text	**kern	**dynam	**kern	**dynam	**kern	**dynam	**kern	**dynam
*part11	*part11	*part11	*part10	*part10	*part9	*part9	*part8	*part8	*part7	*part7	*part6	*part6	*part5	*part5	*part4	*part4	*part3	*part3	*part2	*part2	*part1	*part1
*staff11	*staff11	*	*staff10	*	*staff9	*	*staff8	*staff8	*staff7	*staff7	*staff6	*staff6	*staff5	*staff5	*staff4	*	*staff3	*	*staff2	*	*staff1	*
*	*	*	*group4	*	*group4	*	*group3	*	*group3	*	*group3	*	*group3	*	*group2	*	*group2	*	*group1	*	*group1	*
*I"Organo	*	*	*I"Violino Secondo	*	*I"Violino Primo	*	*I"Baſso	*	*I"Tenore	*	*I"Alto	*	*I"Canto	*	*I"Cornu Secondo Ex C:	*	*I"Cornu Primo Ex C:	*	*I"Oboe Secondo	*	*I"Oboe Primo	*
*I'org	*	*	*I'vl 2	*	*I'vl 1	*	*I'B	*	*I'T	*	*I'A	*	*I'S	*	*I'cor 2 ex C	*	*I'cor 1 ex C	*	*I'ob 2	*	*I'ob 1	*
*Iorgan	*	*	*Ivioln	*	*Ivioln	*	*Ibass	*	*Itenor	*	*Ialto	*	*Isoprn	*	*Icor	*	*Icor	*	*Ioboe	*	*Ioboe	*
*ICklav	*	*	*ICstr	*	*ICstr	*	*ICvox	*	*ICvox	*	*ICvox	*	*ICvox	*	*ICbras	*	*ICbras	*	*ICww	*	*ICww	*
*IGcont	*	*	*IGacmp	*	*IGacmp	*	*IGcoro	*	*IGcoro	*	*IGcoro	*	*IGcoro	*	*IGacmp	*	*IGacmp	*	*IGacmp	*	*IGacmp	*
*clefF4	*	*	*clefG2	*	*clefG2	*	*clefF4	*	*clefC4	*	*clefC3	*	*clefC1	*	*clefG2	*	*clefG2	*	*clefG2	*	*clefG2	*
*	*	*	*	*	*	*	*	*	*	*	*	*	*	*	*Trd0c0	*	*Trd0c0	*	*	*	*	*
*k[]	*	*	*k[]	*	*k[]	*	*k[]	*	*k[]	*	*k[]	*	*k[]	*	*k[]	*	*k[]	*	*k[]	*	*k[]	*
*C:	*	*	*C:	*	*C:	*	*C:	*	*C:	*	*C:	*	*C:	*	*C:	*	*C:	*	*C:	*	*C:	*
*M2/4	*	*	*M2/4	*	*M2/4	*	*M2/4	*	*M2/4	*	*M2/4	*	*M2/4	*	*M2/4	*	*M2/4	*	*M2/4	*	*M2/4	*
=1	=1	=1	=1	=1	=1	=1	=1	=1	=1	=1	=1	=1	=1	=1	=1	=1	=1	=1	=1	=1	=1	=1
!	!	!	!	!	!	!	!	!	!LO:TX:b:t=40:color=grey	!	!	!	!LO:TX:a:i:t=Solo&colon;	!	!	!	!	!	!	!	!	!
!LO:TX:a:Bi:t=Andan	!	!LO:DY:a:t=pio	!LO:TX:a:Bi:t=Andante	!LO:DY:a	!LO:TX:a:Bi:t=Andan&colon;	!LO:DY:t=pio&colon;	!LO:TX:a:Bi:t=andante	!	!LO:TX:a:Bi:t=andante	!	!LO:TX:a:Bi:t=and&colon;	!	!LO:TX:a:Bi:t=and&colon;	!	!LO:TX:a:Bi:t=Andan&colon;	!	!LO:TX:a:Bi:t=Andan&colon;	!	!LO:TX:a:Bi:t=Andante	!	!LO:TX:a:Bi:t=Andante	!
8C/L	.	p	8e/L	p	8.gg\L	p	0r	.	0r	.	0r	.	8.gg\L	Ag-	0r	.	0r	.	0r	.	0r	.
8C/	.	.	8e/	.	.	.	.	.	.	.	.	.	.	.	.	.	.	.	.	.	.	.
.	.	.	.	.	32aa\LL	.	.	.	.	.	.	.	32aa\LL	.	.	.	.	.	.	.	.	.
.	.	.	.	.	32gg\JJJ	.	.	.	.	.	.	.	32gg\JJJ	.	.	.	.	.	.	.	.	.
8C/	.	.	8e/	.	16ff\LL	.	.	.	.	.	.	.	16ff\LL	.	.	.	.	.	.	.	.	.
.	.	.	.	.	16ee\	.	.	.	.	.	.	.	16ee\JJ	.	.	.	.	.	.	.	.	.
8E/J	6	.	8g/J	.	16dd\	.	.	.	.	.	.	.	16dd\LL	-nus	.	.	.	.	.	.	.	.
.	.	.	.	.	16cc\JJ	.	.	.	.	.	.	.	16cc\JJ	.	.	.	.	.	.	.	.	.
=2	=2	=2	=2	=2	=2	=2	=2	=2	=2	=2	=2	=2	=2	=2	=2	=2	=2	=2	=2	=2	=2	=2
8F\L	6	.	8a/L	.	(16aa\LL	.	.	.	.	.	.	.	16aa\LL	De-	.	.	.	.	.	.	.	.
.	.	.	.	.	16ff\J)	.	.	.	.	.	.	.	16ff\JJ	.	.	.	.	.	.	.	.	.
8F\	.	.	8a/	.	8dd|\J	.	.	.	.	.	.	.	8dd\	-i	.	.	.	.	.	.	.	.
8F\	.	.	8a/	.	16r	.	.	.	.	.	.	.	16r	.	.	.	.	.	.	.	.	.
.	.	.	.	.	16dd\	.	.	.	.	.	.	.	16dd\	qui	.	.	.	.	.	.	.	.
8F\J	6 5	.	8a/J	.	(32ff\LLL	.	.	.	.	.	.	.	32ff\LLL	tol-	.	.	.	.	.	.	.	.
.	.	.	.	.	32ee\	.	.	.	.	.	.	.	32ee\	.	.	.	.	.	.	.	.	.
.	.	.	.	.	32dd\	.	.	.	.	.	.	.	32dd\	.	.	.	.	.	.	.	.	.
.	.	.	.	.	32cc\JJJ)	.	.	.	.	.	.	.	32cc\JJJ	.	.	.	.	.	.	.	.	.
=3	=3	=3	=3	=3	=3	=3	=3	=3	=3	=3	=3	=3	=3	=3	=3	=3	=3	=3	=3	=3	=3	=3
*2\right	*	*	*	*	*	*	*	*	*	*	*	*	*	*	*	*	*	*	*	*	*	*
*tremolo	*	*	*	*	*	*	*	*	*	*	*	*	*	*	*	*	*	*	*	*	*	*
8G\L	.	.	8d/L	.	(16cc\LL	.	.	.	.	.	.	.	16cc\LL	-lis	.	.	.	.	.	.	.	.
.	.	.	.	.	16b\)	.	.	.	.	.	.	.	16a\JJ	.	.	.	.	.	.	.	.	.
8G\	.	.	8d/	.	(16b\	.	.	.	.	.	.	.	16b\LL	pec-	.	.	.	.	.	.	.	.
.	.	.	.	.	16cc\JJ)	.	.	.	.	.	.	.	16cc\JJ	.	.	.	.	.	.	.	.	.
8G\	.	.	8b/	.	(16dd\LL	.	.	.	.	.	.	.	16dd\LL	-ca-	.	.	.	.	.	.	.	.
.	.	.	.	.	16ee\)	.	.	.	.	.	.	.	16ee\JJ	.	.	.	.	.	.	.	.	.
8G\J	.	.	8b/J	.	(16ff\	.	.	.	.	.	.	.	16ff\LL	-ta	.	.	.	.	.	.	.	.
.	.	.	.	.	16dd\JJ)	.	.	.	.	.	.	.	16dd\JJ	.	.	.	.	.	.	.	.	.
*Xtremolo	*	*	*	*	*	*	*	*	*	*	*	*	*	*	*	*	*	*	*	*	*	*
!	!	!	!	!	!	!	!	!	!	!	!	!	!LO:LB:g=original	!	!	!	!	!	!	!	!	!
=4	=4	=4	=4	=4	=4	=4	=4	=4	=4	=4	=4	=4	=4	=4	=4	=4	=4	=4	=4	=4	=4	=4
!LO:TX:t=P:problem=mixed beam	!	!	!	!	!	!	!	!	!	!	!	!	!	!	!	!	!	!	!	!	!	!
8c\L	.	.	8g/L	.	16dd\LL	.	.	.	.	.	.	.	16dd\LL	mun-	.	.	.	.	.	.	.	.
.	.	.	.	.	16ee\J	.	.	.	.	.	.	.	16ee\JJ	.	.	.	.	.	.	.	.	.
8C/J	.	.	8g/J	.	8ee\J	.	.	.	.	.	.	.	8ee\	-di	.	.	.	.	.	.	.	.
4E\	6	.	4g/	.	16r	.	.	.	.	.	.	.	16r	.	.	.	.	.	.	.	.	.
.	.	.	.	.	16gg\	.	.	.	.	.	.	.	16gg\	qui	.	.	.	.	.	.	.	.
.	.	.	.	.	(32ff\LLL	.	.	.	.	.	.	.	32ff\LLL	tol-	.	.	.	.	.	.	.	.
.	.	.	.	.	32ee\	.	.	.	.	.	.	.	32ee\	.	.	.	.	.	.	.	.	.
.	.	.	.	.	32dd\	.	.	.	.	.	.	.	32dd\	.	.	.	.	.	.	.	.	.
.	.	.	.	.	32cc\JJJ)	.	.	.	.	.	.	.	32cc\JJJ	.	.	.	.	.	.	.	.	.
!	!	!	!	!	!LO:LB:g=original	!	!	!	!	!	!	!	!	!	!	!	!	!	!	!	!	!
=5	=5	=5	=5	=5	=5	=5	=5	=5	=5	=5	=5	=5	=5	=5	=5	=5	=5	=5	=5	=5	=5	=5
4F\	4 2	.	4g/	.	16cc\LL	.	0r	.	0r	.	0r	.	16cc\LL	.	0r	.	0r	.	0r	.	0r	.
.	.	.	.	.	16b\J	.	.	.	.	.	.	.	16b\JJ	.	.	.	.	.	.	.	.	.
.	.	.	.	.	8b\J	.	.	.	.	.	.	.	8b\	-lis	.	.	.	.	.	.	.	.
4E\	6	.	4g/	.	16r	.	.	.	.	.	.	.	16r	.	.	.	.	.	.	.	.	.
.	.	.	.	.	16gg\	.	.	.	.	.	.	.	16gg\	qui	.	.	.	.	.	.	.	.
.	.	.	.	.	(32ff\LLL	.	.	.	.	.	.	.	32ff\LLL	tol-	.	.	.	.	.	.	.	.
.	.	.	.	.	32ee\	.	.	.	.	.	.	.	32ee\	.	.	.	.	.	.	.	.	.
.	.	.	.	.	32dd\	.	.	.	.	.	.	.	32dd\	.	.	.	.	.	.	.	.	.
.	.	.	.	.	32cc\JJJ)	.	.	.	.	.	.	.	32cc\JJJ	.	.	.	.	.	.	.	.	.
=6	=6	=6	=6	=6	=6	=6	=6	=6	=6	=6	=6	=6	=6	=6	=6	=6	=6	=6	=6	=6	=6	=6
4F\	4 2	.	4g/	.	16cc\LL	.	.	.	.	.	.	.	16cc\LL	.	.	.	.	.	.	.	.	.
.	.	.	.	.	16b\J	.	.	.	.	.	.	.	16b\JJ	.	.	.	.	.	.	.	.	.
.	.	.	.	.	8b\J	.	.	.	.	.	.	.	8b\	-lis	.	.	.	.	.	.	.	.
4E\	6	.	4g/	.	16r	.	.	.	.	.	.	.	16r	.	.	.	.	.	.	.	.	.
.	.	.	.	.	16gg\	.	.	.	.	.	.	.	16gg\	qui	.	.	.	.	.	.	.	.
.	.	.	.	.	(32ff\LLL	.	.	.	.	.	.	.	32ff\LLL	tol-	.	.	.	.	.	.	.	.
.	.	.	.	.	32ee\	.	.	.	.	.	.	.	32ee\	.	.	.	.	.	.	.	.	.
.	.	.	.	.	32dd\	.	.	.	.	.	.	.	32dd\	.	.	.	.	.	.	.	.	.
.	.	.	.	.	32cc\JJJ)	.	.	.	.	.	.	.	32cc\JJJ	.	.	.	.	.	.	.	.	.
!	!	!	!LO:LB:g=original	!	!	!	!	!	!	!	!	!	!LO:LB:g=original	!	!	!	!	!	!	!	!	!
=7	=7	=7	=7	=7	=7	=7	=7	=7	=7	=7	=7	=7	=7	=7	=7	=7	=7	=7	=7	=7	=7	=7
8F\L	6_	.	8a/L	.	(16cc#X\LL	.	.	.	.	.	.	.	16cc#X\LL	-lis	.	.	.	.	.	.	.	.
.	.	.	.	.	16dd\)	.	.	.	.	.	.	.	16dd\JJ	.	.	.	.	.	.	.	.	.
8F\	.	.	8a/	.	(16ff\	.	.	.	.	.	.	.	16ff\LL	pec-	.	.	.	.	.	.	.	.
.	.	.	.	.	16ee\JJ)	.	.	.	.	.	.	.	16ee\JJ	.	.	.	.	.	.	.	.	.
8F\	.	.	8a/	.	(16ee\LL	.	.	.	.	.	.	.	16ee\LL	-ca-	.	.	.	.	.	.	.	.
.	.	.	.	.	16dd\)	.	.	.	.	.	.	.	16dd\JJ	.	.	.	.	.	.	.	.	.
8F#X\J	5	.	8a/J	.	(16dd\	.	.	.	.	.	.	.	16dd\LL	-ta	.	.	.	.	.	.	.	.
.	.	.	.	.	16ccn\JJ)	.	.	.	.	.	.	.	16ccn\JJ	.	.	.	.	.	.	.	.	.
!LO:LB:g=original	!	!	!	!	!	!	!	!	!	!	!	!	!	!	!	!	!	!	!	!	!	!
=8	=8	=8	=8	=8	=8	=8	=8	=8	=8	=8	=8	=8	=8	=8	=8	=8	=8	=8	=8	=8	=8	=8
*	*	*	*	*	*Xtuplet	*	*	*	*	*	*	*	*	*	*	*	*	*	*	*	*	*
8G\L	4	.	8e/L	.	24cc\LL	.	.	.	.	.	.	.	8cc\	mun-	.	.	.	.	.	.	.	.
.	.	.	.	.	24b\	.	.	.	.	.	.	.	.	.	.	.	.	.	.	.	.	.
.	.	.	.	.	24cc\J	.	.	.	.	.	.	.	.	.	.	.	.	.	.	.	.	.
16G\L	3	.	8d/J	.	8b\J	.	.	.	.	.	.	.	8b\	-di	.	.	.	.	.	.	.	.
16F#X\JJ	.	.	.	.	.	.	.	.	.	.	.	.	.	.	.	.	.	.	.	.	.	.
16G\LL	.	.	16B/LL	.	4r	.	.	.	.	.	.	.	4r	.	.	.	.	.	.	.	.	.
16A\	.	.	16c/	.	.	.	.	.	.	.	.	.	.	.	.	.	.	.	.	.	.	.
16B\	.	.	16d/	.	.	.	.	.	.	.	.	.	.	.	.	.	.	.	.	.	.	.
16A\JJ	.	.	16c/JJ	.	.	.	.	.	.	.	.	.	.	.	.	.	.	.	.	.	.	.
=9	=9	=9	=9	=9	=9	=9	=9	=9	=9	=9	=9	=9	=9	=9	=9	=9	=9	=9	=9	=9	=9	=9
8G\L	.	.	8B/L	.	4.dd\	.	0r	.	0r	.	0r	.	4.dd\	mi-	0r	.	0r	.	0r	.	0r	.
8G\	.	.	8B/	.	.	.	.	.	.	.	.	.	.	.	.	.	.	.	.	.	.	.
8G\	.	.	8B/	.	.	.	.	.	.	.	.	.	.	.	.	.	.	.	.	.	.	.
8G\J	.	.	8B/J	.	8dd\	.	.	.	.	.	.	.	8dd\	-ſe-	.	.	.	.	.	.	.	.
!	!	!	!	!	!LO:LB:g=original	!	!	!	!	!	!	!	!	!	!	!	!	!	!	!	!	!
=10	=10	=10	=10	=10	=10	=10	=10	=10	=10	=10	=10	=10	=10	=10	=10	=10	=10	=10	=10	=10	=10	=10
8r	.	.	8r	.	(32dd\LLL	.	.	.	.	.	.	.	32dd\LLL	-re-	.	.	.	.	.	.	.	.
.	.	.	.	.	32ee\	.	.	.	.	.	.	.	32ee\	.	.	.	.	.	.	.	.	.
.	.	.	.	.	32ff\	.	.	.	.	.	.	.	32ff\	.	.	.	.	.	.	.	.	.
.	.	.	.	.	32ee\JJJ)	.	.	.	.	.	.	.	32ee\JJJ	.	.	.	.	.	.	.	.	.
8G\L	6_ 4_	.	8c/L	.	4ee\	.	.	.	.	.	.	.	4ee\	-re	.	.	.	.	.	.	.	.
8G\	.	.	8c/	.	.	.	.	.	.	.	.	.	.	.	.	.	.	.	.	.	.	.
8G\J	.	.	8c/J	.	8r	.	.	.	.	.	.	.	8r	.	.	.	.	.	.	.	.	.
=11	=11	=11	=11	=11	=11	=11	=11	=11	=11	=11	=11	=11	=11	=11	=11	=11	=11	=11	=11	=11	=11	=11
8r	.	.	8r	.	4ee\	.	.	.	.	.	.	.	4ee\	mi-	.	.	.	.	.	.	.	.
8G\L	.	.	8c/L	.	.	.	.	.	.	.	.	.	.	.	.	.	.	.	.	.	.	.
8G\	.	.	8c/	.	(32ee\LLL	.	.	.	.	.	.	.	32ee\LLL	.	.	.	.	.	.	.	.	.
.	.	.	.	.	32ff#X\	.	.	.	.	.	.	.	32ff#X\	.	.	.	.	.	.	.	.	.
.	.	.	.	.	32gg\	.	.	.	.	.	.	.	32gg\	.	.	.	.	.	.	.	.	.
.	.	.	.	.	32ff#\JJJ)	.	.	.	.	.	.	.	32ff#\JJJ	.	.	.	.	.	.	.	.	.
.	.	.	.	.	8qaa/	.	.	.	.	.	.	.	8qaa	.	.	.	.	.	.	.	.	.
!	!	!	!	!	!	!	!	!	!	!	!	!	!LO:LB:g=original	!	!	!	!	!	!	!	!	!
8G\J	.	.	8c/J	.	16gg\LL	.	.	.	.	.	.	.	16gg\	.	.	.	.	.	.	.	.	.
.	.	.	.	.	32ff#\L	.	.	.	.	.	.	.	32ff#X\LLL	-ſe-	.	.	.	.	.	.	.	.
.	.	.	.	.	32ee\JJJ	.	.	.	.	.	.	.	32ee\JJJ	.	.	.	.	.	.	.	.	.
=12	=12	=12	=12	=12	=12	=12	=12	=12	=12	=12	=12	=12	=12	=12	=12	=12	=12	=12	=12	=12	=12	=12
8r	x	.	8r	.	32ee\LLL	.	.	.	.	.	.	.	32ee\LLL	-re-	.	.	.	.	.	.	.	.
.	.	.	.	.	32dd\	.	.	.	.	.	.	.	32dd\	.	.	.	.	.	.	.	.	.
.	.	.	.	.	32cc\	.	.	.	.	.	.	.	32cc\	.	.	.	.	.	.	.	.	.
.	.	.	.	.	32dd\JJJ	.	.	.	.	.	.	.	32dd\JJJ	.	.	.	.	.	.	.	.	.
8G\L	5 3	.	8B/L	.	4dd\	.	.	.	.	.	.	.	4dd\	-re	.	.	.	.	.	.	.	.
8G\	.	.	8B/	.	.	.	.	.	.	.	.	.	.	.	.	.	.	.	.	.	.	.
8G\J	.	.	8B/J	.	8r	.	.	.	.	.	.	.	8r	.	.	.	.	.	.	.	.	.
!	!	!	!LO:LB:g=original	!	!	!	!	!	!	!	!	!	!	!	!	!	!	!	!	!	!	!
=13	=13	=13	=13	=13	=13	=13	=13	=13	=13	=13	=13	=13	=13	=13	=13	=13	=13	=13	=13	=13	=13	=13
8r	.	.	8r	.	4dd\	.	0r	.	0r	.	0r	.	4dd\	mi-	1r	.	1r	.	0r	.	0r	.
8F#X\L	6_ 5_	.	8A/L	.	.	.	.	.	.	.	.	.	.	.	.	.	.	.	.	.	.	.
8F#\	.	.	8A/	.	(32aa\LLL	.	.	.	.	.	.	.	32aa\LLL	.	.	.	.	.	.	.	.	.
.	.	.	.	.	32gg\	.	.	.	.	.	.	.	32gg\	.	.	.	.	.	.	.	.	.
.	.	.	.	.	32ff#X\	.	.	.	.	.	.	.	32ff#X\	.	.	.	.	.	.	.	.	.
.	.	.	.	.	32ee\JJJ)	.	.	.	.	.	.	.	32ee\JJJ	.	.	.	.	.	.	.	.	.
8F#\J	.	.	8A/J	.	(32dd\LLL	.	.	.	.	.	.	.	32dd\LLL	.	.	.	.	.	.	.	.	.
.	.	.	.	.	32cc\	.	.	.	.	.	.	.	32cc\JJJ	.	.	.	.	.	.	.	.	.
.	.	.	.	.	32b\	.	.	.	.	.	.	.	32b\LLL	-ſe-	.	.	.	.	.	.	.	.
.	.	.	.	.	32cc\JJJ)	.	.	.	.	.	.	.	32cc\JJJ	.	.	.	.	.	.	.	.	.
=14	=14	=14	=14	=14	=14	=14	=14	=14	=14	=14	=14	=14	=14	=14	=14	=14	=14	=14	=14	=14	=14	=14
!LO:TX:t=P:problem=mixed beam	!	!	!	!	!	!	!	!	!	!	!	!	!	!	!	!	!	!	!	!	!	!
8G\L	x	.	8B/L	.	(32cc\LLL	.	.	.	.	.	.	.	32cc\LLL	-re-	.	.	.	.	.	.	.	.
.	.	.	.	.	32b\	.	.	.	.	.	.	.	32b\	.	.	.	.	.	.	.	.	.
.	.	.	.	.	32ee\	.	.	.	.	.	.	.	32ee\	.	.	.	.	.	.	.	.	.
.	.	.	.	.	32dd\JJJ)	.	.	.	.	.	.	.	32dd\JJJ	.	.	.	.	.	.	.	.	.
8G\	.	.	8B/	.	4dd\	.	.	.	.	.	.	.	4dd\	-re	.	.	.	.	.	.	.	.
8BB/	6_	.	8g/	.	.	.	.	.	.	.	.	.	.	.	.	.	.	.	.	.	.	.
8BB/J	.	.	8g/J	.	16gg\LL	.	.	.	.	.	.	.	16gg\	mi-	.	.	.	.	.	.	.	.
.	.	.	.	.	16ffn\JJ	.	.	.	.	.	.	.	16ffn\	-ſe-	.	.	.	.	.	.	.	.
!LO:LB:g=original	!	!	!	!	!LO:LB:g=original	!	!	!	!	!	!	!	!LO:LB:g=original	!	!	!	!	!	!	!	!	!
=15	=15	=15	=15	=15	=15	=15	=15	=15	=15	=15	=15	=15	=15	=15	=15	=15	=15	=15	=15	=15	=15	=15
*	*	*	*	*	*tuplet	*	*	*	*	*	*	*	*	*	*	*	*	*	*	*	*	*
!	!	!	!	!	!LO:TUP:a:problem=klamra łukowa, łuczek zamiast numeru	!	!	!	!	!	!	!	!LO:TUP:a:problem=klamra łukowa, łuczek zamiast numeru	!	!	!	!	!	!	!	!	!
8C/L	6	.	8a/L	.	24ee\LL	.	.	.	.	.	.	.	24ee\LL	-re-	8r	.	8r	.	.	.	.	.
.	.	.	.	.	24gg\	.	.	.	.	.	.	.	24gg\	.	.	.	.	.	.	.	.	.
.	.	.	.	.	24ff\JJ	.	.	.	.	.	.	.	24ff#X\JJ	.	.	.	.	.	.	.	.	.
!	!	!	!LO:TUP:b:problem=klamra łukowa, łuczek zamiast numeru	!	!LO:TUP:a:problem=klamra łukowa, łuczek zamiast numeru	!	!	!	!	!	!	!	!LO:TUP:a:problem=klamra łukowa, łuczek zamiast numeru	!	!	!	!	!	!	!	!	!
8C/	.	.	24cc/L	.	24ee\LL	.	.	.	.	.	.	.	24ee\	.	8cc\L	.	8ee\L	.	.	.	.	.
.	.	.	24b/	.	24dd\	.	.	.	.	.	.	.	24dd\LL	-re	.	.	.	.	.	.	.	.
.	.	.	24a/JJ	.	24cc\JJ	.	.	.	.	.	.	.	24cc\JJ	.	.	.	.	.	.	.	.	.
8D/	4	.	8g/L	.	8b\L	.	.	.	.	.	.	.	8b\L	no-	8dd\	.	8dd\	.	.	.	.	.
8DD/J	#	.	8f#X/J	.	8a\J	.	.	.	.	.	.	.	8a\J	.	8dd\J	.	8dd\J	.	.	.	.	.
=16	=16	=16	=16	=16	=16	=16	=16	=16	=16	=16	=16	=16	=16	=16	=16	=16	=16	=16	=16	=16	=16	=16
*	*	*	*	*	*	*	*	*	*	*	*	*	*	*	*	*	*2\right	*	*	*	*	*
!LO:TX:t=P:problem=mixed beam	!	!LO:DY:a	!	!LO:DY:a	!	!LO:DY:a:rj	!	!	!	!	!	!	!	!	!	!	!	!	!	!	!	!
8GG/L	.	f	8g/L	f	16b\LL	f	.	.	.	.	.	.	4b\	-bis	2g/	.	2dd\	.	.	.	.	.
.	.	.	.	.	16dd|\	.	.	.	.	.	.	.	.	.	.	.	.	.	.	.	.	.
8G\	.	.	8b/	.	16dd|\	.	.	.	.	.	.	.	.	.	.	.	.	.	.	.	.	.
.	.	.	.	.	16dd|\JJ	.	.	.	.	.	.	.	.	.	.	.	.	.	.	.	.	.
8G\	.	.	8b/	.	16dd\LL	.	.	.	.	.	.	.	4r	.	.	.	.	.	.	.	.	.
.	.	.	.	.	(32ee\L	.	.	.	.	.	.	.	.	.	.	.	.	.	.	.	.	.
.	.	.	.	.	32ff#X\JJJ)	.	.	.	.	.	.	.	.	.	.	.	.	.	.	.	.	.
8G\J	.	.	8b/J	.	(32gg\LLL	.	.	.	.	.	.	.	.	.	.	.	.	.	.	.	.	.
.	.	.	.	.	32ff#\	.	.	.	.	.	.	.	.	.	.	.	.	.	.	.	.	.
.	.	.	.	.	32ee\	.	.	.	.	.	.	.	.	.	.	.	.	.	.	.	.	.
.	.	.	.	.	32dd\JJJ)	.	.	.	.	.	.	.	.	.	.	.	.	.	.	.	.	.
=17	=17	=17	=17	=17	=17	=17	=17	=17	=17	=17	=17	=17	=17	=17	=17	=17	=17	=17	=17	=17	=17	=17
*tremolo	*	*	*	*	*	*	*	*	*	*	*	*	*	*	*2\right	*	*	*	*	*	*	*
!	!	!	!	!	!	!	!	!	!	!	!	!	!LO:TX:b:t=24:color=grey	!	!	!	!	!	!	!	!	!
8F#X\L	6 5	.	8a/L	.	16dd|\LL	.	0r	.	0r	.	1r	.	0r	.	2dd\	.	2dd\	.	0r	.	0r	.
.	.	.	.	.	16dd|\	.	.	.	.	.	.	.	.	.	.	.	.	.	.	.	.	.
8F#\	.	.	8a/	.	16dd|\	.	.	.	.	.	.	.	.	.	.	.	.	.	.	.	.	.
.	.	.	.	.	16dd|\JJ	.	.	.	.	.	.	.	.	.	.	.	.	.	.	.	.	.
8F#\	.	.	8a/	.	(32dd\LLL	.	.	.	.	.	.	.	.	.	.	.	.	.	.	.	.	.
.	.	.	.	.	32ee\	.	.	.	.	.	.	.	.	.	.	.	.	.	.	.	.	.
.	.	.	.	.	32ff#X\	.	.	.	.	.	.	.	.	.	.	.	.	.	.	.	.	.
.	.	.	.	.	32gg\JJJ)	.	.	.	.	.	.	.	.	.	.	.	.	.	.	.	.	.
8F#\J	.	.	8a/J	.	(32aa\LLL	.	.	.	.	.	.	.	.	.	.	.	.	.	.	.	.	.
.	.	.	.	.	32ff#\)	.	.	.	.	.	.	.	.	.	.	.	.	.	.	.	.	.
.	.	.	.	.	(32dd\	.	.	.	.	.	.	.	.	.	.	.	.	.	.	.	.	.
.	.	.	.	.	32cc\JJJ)	.	.	.	.	.	.	.	.	.	.	.	.	.	.	.	.	.
*Xtremolo	*	*	*	*	*	*	*	*	*	*	*	*	*	*	*	*	*	*	*	*	*	*
=18	=18	=18	=18	=18	=18	=18	=18	=18	=18	=18	=18	=18	=18	=18	=18	=18	=18	=18	=18	=18	=18	=18
!LO:TX:t=P:problem=mixed beam	!	!	!	!	!	!	!	!	!	!	!	!	!	!	!	!	!	!	!	!	!	!
8G\L	.	.	8d/L	.	16cc\LL	.	.	.	.	.	.	.	.	.	2g/	.	2dd\	.	.	.	.	.
.	.	.	.	.	16b\J	.	.	.	.	.	.	.	.	.	.	.	.	.	.	.	.	.
8G\	.	.	8d/	.	8b\J	.	.	.	.	.	.	.	.	.	.	.	.	.	.	.	.	.
8BB/	6	.	8g/	.	16r	.	.	.	.	.	.	.	.	.	.	.	.	.	.	.	.	.
.	.	.	.	.	16dd\LL	.	.	.	.	.	.	.	.	.	.	.	.	.	.	.	.	.
8BB/J	.	.	8g/J	.	16gg\	.	.	.	.	.	.	.	.	.	.	.	.	.	.	.	.	.
.	.	.	.	.	16ffn\JJ	.	.	.	.	.	.	.	.	.	.	.	.	.	.	.	.	.
!	!	!	!LO:LB:g=original	!	!LO:LB:g=original	!	!	!	!	!	!	!	!	!	!	!	!	!	!	!	!	!
=19	=19	=19	=19	=19	=19	=19	=19	=19	=19	=19	=19	=19	=19	=19	=19	=19	=19	=19	=19	=19	=19	=19
!	!	!	!	!	!LO:TUP:a:problem=klamra łukowa, łuczek zamiast numeru	!	!	!	!	!	!	!	!	!	!	!	!	!	!	!	!	!
8C/L	6	.	8a/L	.	24ee\LL	.	.	.	.	.	2r	.	.	.	4cc\	.	4ee\	.	.	.	.	.
.	.	.	.	.	24gg\	.	.	.	.	.	.	.	.	.	.	.	.	.	.	.	.	.
.	.	.	.	.	24ff\JJ	.	.	.	.	.	.	.	.	.	.	.	.	.	.	.	.	.
!	!	!	!LO:TUP:b:problem=klamra łukowa, łuczek zamiast numeru	!	!LO:TUP:a:problem=klamra łukowa, łuczek zamiast numeru	!	!	!	!	!	!	!	!	!	!	!	!	!	!	!	!	!
8C/	.	.	24cc/L	.	24ee\LL	.	.	.	.	.	.	.	.	.	.	.	.	.	.	.	.	.
.	.	.	24b/	.	24dd\	.	.	.	.	.	.	.	.	.	.	.	.	.	.	.	.	.
.	.	.	24a/JJ	.	24cc\JJ	.	.	.	.	.	.	.	.	.	.	.	.	.	.	.	.	.
8D/	4	.	8g/L	.	8b\L	.	.	.	.	.	.	.	.	.	8dd\L	.	8dd\L	.	.	.	.	.
8DD/J	#	.	8f#X/J	.	8a\J	.	.	.	.	.	.	.	.	.	8dd\J	.	8dd\J	.	.	.	.	.
=20	=20	=20	=20	=20	=20	=20	=20	=20	=20	=20	=20	=20	=20	=20	=20	=20	=20	=20	=20	=20	=20	=20
.	.	.	.	.	8qb/	.	.	.	.	.	.	.	.	.	.	.	.	.	.	.	.	.
!	!	!LO:DY:a:rj	!	!LO:DY:a	!	!LO:DY:a:rj	!	!	!	!	!LO:TX:a:i:t=Solo&colon;:rj	!	!	!	!	!	!	!	!	!	!	!
8GG/L	.	p	8B/L	p	8.dd\L	p	.	.	.	.	8.dd\L	Ag-	.	.	4g/	.	4dd\	.	.	.	.	.
8GG/	.	.	8B/	.	.	.	.	.	.	.	.	.	.	.	.	.	.	.	.	.	.	.
.	.	.	.	.	32ee\LL	.	.	.	.	.	32ee\LL	.	.	.	.	.	.	.	.	.	.	.
.	.	.	.	.	32dd\JJJ	.	.	.	.	.	32dd\JJJ	.	.	.	.	.	.	.	.	.	.	.
8GG/	.	.	8d/	.	16cc\LL	.	.	.	.	.	16cc\LL	.	.	.	4r	.	4r	.	.	.	.	.
.	.	.	.	.	16b\	.	.	.	.	.	16b\JJ	.	.	.	.	.	.	.	.	.	.	.
8BB/J	6	.	8d/J	.	16a\	.	.	.	.	.	16a\LL	-nus	.	.	.	.	.	.	.	.	.	.
.	.	.	.	.	16g\JJ	.	.	.	.	.	16g\JJ	.	.	.	.	.	.	.	.	.	.	.
!	!	!	!	!	!	!	!	!	!	!	!	!	!	!	!	!	!LO:LB:g=original	!	!	!	!	!
=21	=21	=21	=21	=21	=21	=21	=21	=21	=21	=21	=21	=21	=21	=21	=21	=21	=21	=21	=21	=21	=21	=21
*	*	*	*tremolo	*	*	*	*	*	*	*	*	*	*	*	*	*	*	*	*	*	*	*
8C/L	6	.	8e/L	.	(16ee\LL	.	0r	.	0r	.	16ee\LL	De-	0r	.	0r	.	0r	.	1r	.	1r	.
.	.	.	.	.	16cc\J)	.	.	.	.	.	16cc\JJ	.	.	.	.	.	.	.	.	.	.	.
8C/	.	.	8e/	.	8a|\J	.	.	.	.	.	8a\	-i	.	.	.	.	.	.	.	.	.	.
8C/	.	.	8e/	.	16r	.	.	.	.	.	16r	.	.	.	.	.	.	.	.	.	.	.
.	.	.	.	.	16a/	.	.	.	.	.	16a\	qui	.	.	.	.	.	.	.	.	.	.
8C/J	6 5	.	8e/J	.	(32cc/LLL	.	.	.	.	.	32cc\LLL	tol-	.	.	.	.	.	.	.	.	.	.
.	.	.	.	.	32b/	.	.	.	.	.	32b\	.	.	.	.	.	.	.	.	.	.	.
.	.	.	.	.	32a/	.	.	.	.	.	32a\	.	.	.	.	.	.	.	.	.	.	.
.	.	.	.	.	32g/JJJ)	.	.	.	.	.	32g\JJJ	.	.	.	.	.	.	.	.	.	.	.
*	*	*	*Xtremolo	*	*	*	*	*	*	*	*	*	*	*	*	*	*	*	*	*	*	*
=22	=22	=22	=22	=22	=22	=22	=22	=22	=22	=22	=22	=22	=22	=22	=22	=22	=22	=22	=22	=22	=22	=22
8D\L	#_	.	8A/L	.	(16g/LL	.	.	.	.	.	16g\LL	-lis	.	.	.	.	.	.	.	.	.	.
.	.	.	.	.	16f#X/)	.	.	.	.	.	16f#X\JJ	.	.	.	.	.	.	.	.	.	.	.
8D\	.	.	8A/	.	(16f#/	.	.	.	.	.	16f#\LL	pec-	.	.	.	.	.	.	.	.	.	.
.	.	.	.	.	16g/JJ)	.	.	.	.	.	16g\JJ	.	.	.	.	.	.	.	.	.	.	.
!	!	!	!	!	!	!	!	!	!	!	!LO:LB:g=original	!	!	!	!	!	!	!	!	!	!	!
8D\	.	.	8f#X/	.	(16a/LL	.	.	.	.	.	16a\LL	-ca-	.	.	.	.	.	.	.	.	.	.
.	.	.	.	.	16b/)	.	.	.	.	.	16b\JJ	.	.	.	.	.	.	.	.	.	.	.
8D\J	.	.	8f#/J	.	(16cc/	.	.	.	.	.	16cc\LL	-ta	.	.	.	.	.	.	.	.	.	.
.	.	.	.	.	16a/JJ)	.	.	.	.	.	16a\JJ	.	.	.	.	.	.	.	.	.	.	.
!LO:LB:g=original	!	!	!	!	!	!	!	!	!	!	!	!	!	!	!	!	!	!	!	!	!	!
=23	=23	=23	=23	=23	=23	=23	=23	=23	=23	=23	=23	=23	=23	=23	=23	=23	=23	=23	=23	=23	=23	=23
!LO:TX:t=P:problem=mixed beam	!	!	!	!	!	!	!	!	!	!	!	!	!	!	!	!	!	!	!	!	!	!
8G\L	x	.	8d/L	.	(16a/LL	.	.	.	.	.	16a\LL	mun-	.	.	.	.	.	.	2r	.	2r	.
.	.	.	.	.	16b/J)	.	.	.	.	.	16b\JJ	.	.	.	.	.	.	.	.	.	.	.
8GG/J	.	.	8d/J	.	8b/J	.	.	.	.	.	8b\	-di	.	.	.	.	.	.	.	.	.	.
!	!	!	!	!	!LO:LB:g=original	!	!	!	!	!	!	!	!	!	!	!	!	!	!	!	!	!
4BB/	6	.	4d 4G/	.	16r	.	.	.	.	.	16r	.	.	.	.	.	.	.	.	.	.	.
.	.	.	.	.	16dd\	.	.	.	.	.	16dd\	qui	.	.	.	.	.	.	.	.	.	.
.	.	.	.	.	(32cc/LLL	.	.	.	.	.	32cc\LLL	tol-	.	.	.	.	.	.	.	.	.	.
.	.	.	.	.	32b/)	.	.	.	.	.	32b\	.	.	.	.	.	.	.	.	.	.	.
.	.	.	.	.	(32a/	.	.	.	.	.	32a\	.	.	.	.	.	.	.	.	.	.	.
.	.	.	.	.	32g/JJJ)	.	.	.	.	.	32g\JJJ	.	.	.	.	.	.	.	.	.	.	.
=24	=24	=24	=24	=24	=24	=24	=24	=24	=24	=24	=24	=24	=24	=24	=24	=24	=24	=24	=24	=24	=24	=24
!	!	!	!	!	!	!	!	!	!	!	!	!	!	!	!	!	!	!	!LO:TX:t=P:problem=brak taktów nr 24-34	!	!LO:TX:t=P:problem=brak taktów 24-34	!
4C/	r#4 2	.	4d 4A/	.	16g/LL	.	.	.	.	.	16g\LL	.	.	.	.	.	.	.	2ryy	.	2ryy	.
.	.	.	.	.	16f#X/J	.	.	.	.	.	16f#X\JJ	.	.	.	.	.	.	.	.	.	.	.
.	.	.	.	.	8f#/J	.	.	.	.	.	8f#\	-lis	.	.	.	.	.	.	.	.	.	.
4BB/	6	.	4d 4G/	.	16r	.	.	.	.	.	16r	.	.	.	.	.	.	.	.	.	.	.
.	.	.	.	.	16dd\	.	.	.	.	.	16dd\	qui	.	.	.	.	.	.	.	.	.	.
.	.	.	.	.	(32cc/LLL	.	.	.	.	.	32cc\LLL	tol-	.	.	.	.	.	.	.	.	.	.
.	.	.	.	.	32b/)	.	.	.	.	.	32b\	.	.	.	.	.	.	.	.	.	.	.
.	.	.	.	.	(32a/	.	.	.	.	.	32a\	.	.	.	.	.	.	.	.	.	.	.
.	.	.	.	.	32g/JJJ)	.	.	.	.	.	32g\JJJ	.	.	.	.	.	.	.	.	.	.	.
!	!	!	!	!	!	!	!	!	!	!	!LO:PB:g=original	!	!	!	!	!	!	!	!	!	!	!
=25	=25	=25	=25	=25	=25	=25	=25	=25	=25	=25	=25	=25	=25	=25	=25	=25	=25	=25	=25	=25	=25	=25
4C/	r#4 2	.	4d 4A/	.	(16g/LL	.	0r	.	0r	.	16g\LL	.	0r	.	0r	.	0r	.	2ryy	.	2ryy	.
.	.	.	.	.	16f#X/J)	.	.	.	.	.	16f#X\JJ	.	.	.	.	.	.	.	.	.	.	.
.	.	.	.	.	8f#|/J	.	.	.	.	.	8f#\	-lis	.	.	.	.	.	.	.	.	.	.
4BB/	6	.	4d 4G/	.	16r	.	.	.	.	.	16r	.	.	.	.	.	.	.	.	.	.	.
.	.	.	.	.	16dd\	.	.	.	.	.	16dd\	qui	.	.	.	.	.	.	.	.	.	.
.	.	.	.	.	(32cc/LLL	.	.	.	.	.	32cc\LLL	tol-	.	.	.	.	.	.	.	.	.	.
.	.	.	.	.	32b/)	.	.	.	.	.	32b\	.	.	.	.	.	.	.	.	.	.	.
.	.	.	.	.	(32a/	.	.	.	.	.	32a\	.	.	.	.	.	.	.	.	.	.	.
.	.	.	.	.	32g/JJJ)	.	.	.	.	.	32g\JJJ	.	.	.	.	.	.	.	.	.	.	.
=26	=26	=26	=26	=26	=26	=26	=26	=26	=26	=26	=26	=26	=26	=26	=26	=26	=26	=26	=26	=26	=26	=26
!	!	!	!	!	!	!	!	!	!	!	!LO:SIC:v:s=16g#\LL	!	!	!	!	!	!	!	!	!	!	!
8C/L	6_	.	8e/L	.	(16g#X/LL	.	.	.	.	.	16g\LL	-lis	.	.	.	.	.	.	2ryy	.	2ryy	.
.	.	.	.	.	16a/)	.	.	.	.	.	16a\JJ	.	.	.	.	.	.	.	.	.	.	.
8C/	.	.	8e/	.	(16cc/	.	.	.	.	.	16cc\LL	pec-	.	.	.	.	.	.	.	.	.	.
.	.	.	.	.	16b/JJ)	.	.	.	.	.	16b\JJ	.	.	.	.	.	.	.	.	.	.	.
8C/	.	.	8e/	.	(16b/LL	.	.	.	.	.	16b\LL	-ca-	.	.	.	.	.	.	.	.	.	.
.	.	.	.	.	16a/)	.	.	.	.	.	16a\JJ	.	.	.	.	.	.	.	.	.	.	.
8C#X/J	5	.	8e/J	.	(16a/	.	.	.	.	.	16a\LL	-ta	.	.	.	.	.	.	.	.	.	.
.	.	.	.	.	16gn/JJ)	.	.	.	.	.	16g\JJ	.	.	.	.	.	.	.	.	.	.	.
!	!	!	!LO:LB:g=original	!	!	!	!	!	!	!	!	!	!	!	!	!	!	!	!	!	!	!
=27	=27	=27	=27	=27	=27	=27	=27	=27	=27	=27	=27	=27	=27	=27	=27	=27	=27	=27	=27	=27	=27	=27
8D/L	4	.	8B/L	.	8g/L	.	.	.	.	.	8g\	mun-	.	.	.	.	.	.	2ryy	.	2ryy	.
16D/L	#	.	8A/J	.	8f#X/J	.	.	.	.	.	8f#X\	-di	.	.	.	.	.	.	.	.	.	.
!LO:SIC:v:s=16C#/JJ	!	!	!	!	!	!	!	!	!	!	!	!	!	!	!	!	!	!	!	!	!	!
16C/JJ	.	.	.	.	.	.	.	.	.	.	.	.	.	.	.	.	.	.	.	.	.	.
16D\LL	.	.	16f#X/LL	.	4r	.	.	.	.	.	4r	.	.	.	.	.	.	.	.	.	.	.
16E\	.	.	16g/	.	.	.	.	.	.	.	.	.	.	.	.	.	.	.	.	.	.	.
16F#X\	.	.	16a/	.	.	.	.	.	.	.	.	.	.	.	.	.	.	.	.	.	.	.
16E\JJ	.	.	16g/JJ	.	.	.	.	.	.	.	.	.	.	.	.	.	.	.	.	.	.	.
!	!	!	!	!	!LO:LB:g=original	!	!	!	!	!	!	!	!	!	!	!	!	!	!	!	!	!
=28	=28	=28	=28	=28	=28	=28	=28	=28	=28	=28	=28	=28	=28	=28	=28	=28	=28	=28	=28	=28	=28	=28
8D\L	#_	.	8d/L	.	4.ff#X\	.	.	.	.	.	4.f#X\	mi-	.	.	.	.	.	.	2ryy	.	2ryy	.
8d\	.	.	8A/	.	.	.	.	.	.	.	.	.	.	.	.	.	.	.	.	.	.	.
8cn\	.	.	8A/	.	.	.	.	.	.	.	.	.	.	.	.	.	.	.	.	.	.	.
8c\J	.	.	8A/J	.	8ff#\	.	.	.	.	.	16e\LL	-ſe-	.	.	.	.	.	.	.	.	.	.
.	.	.	.	.	.	.	.	.	.	.	16f#\JJ	.	.	.	.	.	.	.	.	.	.	.
!	!	!	!	!	!	!	!	!	!	!	!LO:LB:g=original	!	!	!	!	!	!	!	!	!	!	!
=29	=29	=29	=29	=29	=29	=29	=29	=29	=29	=29	=29	=29	=29	=29	=29	=29	=29	=29	=29	=29	=29	=29
!	!	!	!	!	!LO:SIC:v:s=(32ff#\LLL	!	!	!	!	!	!LO:SIC:v:s=32f#\LLL	!	!	!	!	!	!	!	!	!	!	!
8B\L	6_	.	8d/L	.	(32ff\LLL	.	0r	.	0r	.	32f\LLL	-re-	0r	.	0r	.	0r	.	2ryy	.	2ryy	.
.	.	.	.	.	32gg\	.	.	.	.	.	32g\	.	.	.	.	.	.	.	.	.	.	.
.	.	.	.	.	32aa\	.	.	.	.	.	32a\	.	.	.	.	.	.	.	.	.	.	.
.	.	.	.	.	32gg\JJJ)	.	.	.	.	.	32g\JJJ	.	.	.	.	.	.	.	.	.	.	.
!	!	!	!	!	!	!	!	!	!	!	!LO:SIC:v:s=4f#\	!	!	!	!	!	!	!	!	!	!	!
8B\	.	.	8d/	.	4gg\	.	.	.	.	.	4f\	-re	.	.	.	.	.	.	.	.	.	.
8G\	x	.	8B/	.	.	.	.	.	.	.	.	.	.	.	.	.	.	.	.	.	.	.
8G\J	.	.	8B/J	.	8r	.	.	.	.	.	8r	.	.	.	.	.	.	.	.	.	.	.
!LO:PB:g=original	!	!	!	!	!	!	!	!	!	!	!	!	!	!	!	!	!	!	!	!	!	!
=30	=30	=30	=30	=30	=30	=30	=30	=30	=30	=30	=30	=30	=30	=30	=30	=30	=30	=30	=30	=30	=30	=30
*	*	*	*tremolo	*	*	*	*	*	*	*	*	*	*	*	*	*	*	*	*	*	*	*
8c\L	3_	.	8G/L	.	4.ee\	.	.	.	.	.	4.e\	mi-	.	.	.	.	.	.	2ryy	.	2ryy	.
8c\	.	.	8G/	.	.	.	.	.	.	.	.	.	.	.	.	.	.	.	.	.	.	.
8B-X\	x	.	8G/	.	.	.	.	.	.	.	.	.	.	.	.	.	.	.	.	.	.	.
8B-\J	.	.	8G/J	.	8ee\	.	.	.	.	.	16d\LL	-ſe-	.	.	.	.	.	.	.	.	.	.
.	.	.	.	.	.	.	.	.	.	.	16e\JJ	.	.	.	.	.	.	.	.	.	.	.
*	*	*	*Xtremolo	*	*	*	*	*	*	*	*	*	*	*	*	*	*	*	*	*	*	*
=31	=31	=31	=31	=31	=31	=31	=31	=31	=31	=31	=31	=31	=31	=31	=31	=31	=31	=31	=31	=31	=31	=31
8A\L	6_	.	8c/L	.	(32ee\LLL	.	.	.	.	.	32e\LLL	-re-	.	.	.	.	.	.	2ryy	.	2ryy	.
.	.	.	.	.	32ffn\	.	.	.	.	.	32f\	.	.	.	.	.	.	.	.	.	.	.
.	.	.	.	.	32gg\	.	.	.	.	.	32g\	.	.	.	.	.	.	.	.	.	.	.
.	.	.	.	.	32ff\JJJ)	.	.	.	.	.	32f\JJJ	.	.	.	.	.	.	.	.	.	.	.
8A\	.	.	8c/	.	4ff\	.	.	.	.	.	4f\	-re	.	.	.	.	.	.	.	.	.	.
8F\	x	.	8A/	.	.	.	.	.	.	.	.	.	.	.	.	.	.	.	.	.	.	.
8F\J	.	.	8A/J	.	8r	.	.	.	.	.	8r	.	.	.	.	.	.	.	.	.	.	.
=32	=32	=32	=32	=32	=32	=32	=32	=32	=32	=32	=32	=32	=32	=32	=32	=32	=32	=32	=32	=32	=32	=32
*tremolo	*	*	*	*	*	*	*	*	*	*	*	*	*	*	*	*	*	*	*	*	*	*
8E\L	6 5	.	8G/L	.	8.ccc\L	.	.	.	.	.	8.cc\L	mi-	.	.	.	.	.	.	2ryy	.	2ryy	.
8E\	.	.	8g/	.	.	.	.	.	.	.	.	.	.	.	.	.	.	.	.	.	.	.
.	.	.	.	.	32ddd\LL	.	.	.	.	.	32dd\LL	.	.	.	.	.	.	.	.	.	.	.
.	.	.	.	.	32ccc\JJJ	.	.	.	.	.	32cc\JJJ	.	.	.	.	.	.	.	.	.	.	.
8E\	.	.	8g/	.	(16ccc\LL	.	.	.	.	.	16cc\LL	-ſe-	.	.	.	.	.	.	.	.	.	.
.	.	.	.	.	16bb\)	.	.	.	.	.	16b\	.	.	.	.	.	.	.	.	.	.	.
8E\J	.	.	8g/J	.	(16aa\	.	.	.	.	.	16a\	.	.	.	.	.	.	.	.	.	.	.
.	.	.	.	.	16gg\JJ)	.	.	.	.	.	16g\JJ	.	.	.	.	.	.	.	.	.	.	.
*Xtremolo	*	*	*	*	*	*	*	*	*	*	*	*	*	*	*	*	*	*	*	*	*	*
=33	=33	=33	=33	=33	=33	=33	=33	=33	=33	=33	=33	=33	=33	=33	=33	=33	=33	=33	=33	=33	=33	=33
8F\L	3	.	8f/L	.	(16gg\LL	.	0r	.	0r	.	16g\LL	-re-	0r	.	1r	.	1r	.	2ryy	.	2ryy	.
.	.	.	.	.	16aa\J)	.	.	.	.	.	16a\JJ	.	.	.	.	.	.	.	.	.	.	.
8F\	.	.	8f/	.	8aa\J	.	.	.	.	.	8a\	-re	.	.	.	.	.	.	.	.	.	.
!	!	!	!	!	!LO:TX:a:B:t=t	!	!	!	!	!	!	!	!	!	!	!	!	!	!	!	!	!
8F\	4_ 2_	.	8g/	.	8.bbn\L	.	.	.	.	.	8.bn\	mi-	.	.	.	.	.	.	.	.	.	.
8F\J	.	.	8g/J	.	.	.	.	.	.	.	.	.	.	.	.	.	.	.	.	.	.	.
.	.	.	.	.	(32aa\LL	.	.	.	.	.	32a\LLL	-ſe-	.	.	.	.	.	.	.	.	.	.
.	.	.	.	.	32bb\JJJ)	.	.	.	.	.	32b\JJJ	.	.	.	.	.	.	.	.	.	.	.
!	!	!	!LO:LB:g=original	!	!LO:LB:g=original	!	!	!	!	!	!LO:LB:g=original	!	!	!	!	!	!	!	!	!	!	!
=34	=34	=34	=34	=34	=34	=34	=34	=34	=34	=34	=34	=34	=34	=34	=34	=34	=34	=34	=34	=34	=34	=34
!LO:TX:t=P:problem=mixed beam	!	!	!	!	!	!	!	!	!	!	!	!	!	!	!	!	!	!	!	!	!	!
8E\L	6	.	8g/L	.	(16ccc\LL	.	.	.	.	.	16cc\LL	-re-	.	.	.	.	.	.	2ryy	.	2ryy	.
.	.	.	.	.	16gg\)	.	.	.	.	.	16g\JJ	.	.	.	.	.	.	.	.	.	.	.
8F\	6	.	16f/L	.	(16aa\	.	.	.	.	.	16a\LL	-re	.	.	.	.	.	.	.	.	.	.
.	.	.	16d/JJ	.	16ff\JJ)	.	.	.	.	.	16f\JJ	.	.	.	.	.	.	.	.	.	.	.
8G\	4	.	8c/L	.	8ee\L	.	.	.	.	.	8e\L	no-	.	.	.	.	.	.	.	.	.	.
8GG/J	3	.	8B/J	.	8dd\J	.	.	.	.	.	8d\J	.	.	.	.	.	.	.	.	.	.	.
!	!	!	!	!	!	!	!	!	!	!	!	!	!	!	!LO:LB:g=original	!	!	!	!	!	!	!
=35	=35	=35	=35	=35	=35	=35	=35	=35	=35	=35	=35	=35	=35	=35	=35	=35	=35	=35	=35	=35	=35	=35
!	!	!	!	!LO:DY:a:rj	!	!LO:DY:a:rj	!	!	!	!	!	!	!	!	!	!	!	!	!	!	!	!
8C/L	.	.	16c/LL	f	(16cc\LL	f	.	.	.	.	4e\	-bis	.	.	4cc\	.	4ee\	.	4cc\	.	4ee\	.
.	.	.	16e|/	.	16ee\)	.	.	.	.	.	.	.	.	.	.	.	.	.	.	.	.	.
8C/	.	.	16e|/	.	16ee|\	.	.	.	.	.	.	.	.	.	.	.	.	.	.	.	.	.
.	.	.	16e|/JJ	.	16ee|\JJ	.	.	.	.	.	.	.	.	.	.	.	.	.	.	.	.	.
8C/	.	.	16e|/LL	.	16ee\LL	.	.	.	.	.	4r	.	.	.	4cc\	.	4ee\	.	4ee\	.	4gg\	.
.	.	.	(32f/L	.	(32ff\L	.	.	.	.	.	.	.	.	.	.	.	.	.	.	.	.	.
.	.	.	32e/JJJ)	.	32ee\JJJ)	.	.	.	.	.	.	.	.	.	.	.	.	.	.	.	.	.
8E/J	6	.	(32d/LLL	.	(32dd\LLL	.	.	.	.	.	.	.	.	.	.	.	.	.	.	.	.	.
.	.	.	32c/)	.	32cc\	.	.	.	.	.	.	.	.	.	.	.	.	.	.	.	.	.
.	.	.	(32B/	.	32b\	.	.	.	.	.	.	.	.	.	.	.	.	.	.	.	.	.
.	.	.	32c/JJJ)	.	32cc\JJJ)	.	.	.	.	.	.	.	.	.	.	.	.	.	.	.	.	.
=36	=36	=36	=36	=36	=36	=36	=36	=36	=36	=36	=36	=36	=36	=36	=36	=36	=36	=36	=36	=36	=36	=36
8F\L	6	.	(16B/LL	.	(16b-X/LL	.	.	.	.	.	0r	.	.	.	4dd\	.	4ff\	.	4ff\	.	4aa\	.
.	.	.	16A/)	.	16a/)	.	.	.	.	.	.	.	.	.	.	.	.	.	.	.	.	.
8F\	.	.	16A|/	.	16a|/	.	.	.	.	.	.	.	.	.	.	.	.	.	.	.	.	.
.	.	.	16A|/JJ	.	16a|/JJ	.	.	.	.	.	.	.	.	.	.	.	.	.	.	.	.	.
8G\	3_	.	(16A/LL	.	(16a\LL	.	.	.	.	.	.	.	.	.	4g/	.	4dd\	.	4dd\	.	4bb\	.
.	.	.	16B/JJ)	.	16bn\JJ)	.	.	.	.	.	.	.	.	.	.	.	.	.	.	.	.	.
.	.	.	.	.	8qcc/	.	.	.	.	.	.	.	.	.	.	.	.	.	.	.	.	.
8F\J	.	.	16B/LL	.	16b\LL	.	.	.	.	.	.	.	.	.	.	.	.	.	.	.	.	.
.	.	.	(32A/L	.	(32a\L	.	.	.	.	.	.	.	.	.	.	.	.	.	.	.	.	.
.	.	.	32B/JJJ)	.	32b\JJJ)	.	.	.	.	.	.	.	.	.	.	.	.	.	.	.	.	.
=37	=37	=37	=37	=37	=37	=37	=37	=37	=37	=37	=37	=37	=37	=37	=37	=37	=37	=37	=37	=37	=37	=37
8E\L	6_	.	(16B/LL	.	(16b\LL	.	0r	.	0r	.	.	.	0r	.	4e/	.	4cc\	.	4ee\	.	4ccc\	.
.	.	.	16c/J)	.	16cc\J)	.	.	.	.	.	.	.	.	.	.	.	.	.	.	.	.	.
8E\	.	.	8c|/J	.	8cc|\J	.	.	.	.	.	.	.	.	.	.	.	.	.	.	.	.	.
8E\	.	.	16r	.	16r	.	.	.	.	.	.	.	.	.	8e/	.	8cc\	.	8ee\	.	8gg\	.
.	.	.	(16c/LL	.	(16cc\LL	.	.	.	.	.	.	.	.	.	.	.	.	.	.	.	.	.
8E\J	6 r-5	.	16B/	.	16b\	.	.	.	.	.	.	.	.	.	8r	.	8r	.	8r	.	8r	.
.	.	.	16B-X/JJ)	.	16b-X\JJ)	.	.	.	.	.	.	.	.	.	.	.	.	.	.	.	.	.
!LO:LB:g=original	!	!	!	!	!	!	!	!	!	!	!	!	!	!	!	!	!	!	!	!	!	!
=38	=38	=38	=38	=38	=38	=38	=38	=38	=38	=38	=38	=38	=38	=38	=38	=38	=38	=38	=38	=38	=38	=38
!	!	!	!LO:SIC:v:s=(16B/LL	!	!LO:SIC:v:s=(16b-/LL	!	!	!	!	!	!	!	!	!	!	!	!	!	!	!	!	!
8F\L	6	.	(16B/LL	.	(16b/LL	.	.	.	.	.	.	.	.	.	4dd\	.	4ff\	.	4ff\	.	4aa\	.
.	.	.	16A/J)	.	16a/J)	.	.	.	.	.	.	.	.	.	.	.	.	.	.	.	.	.
8F\	.	.	8A|/J	.	8a|/J	.	.	.	.	.	.	.	.	.	.	.	.	.	.	.	.	.
!	!	!	!LO:LB:g=original	!	!LO:LB:g=original	!	!	!	!	!	!	!	!	!	!	!	!	!	!	!	!	!
8G\	n_	.	16r	.	16r	.	.	.	.	.	.	.	.	.	4g/	.	4dd\	.	4dd\	.	4bb\	.
.	.	.	(32d/LLL	.	(32dd\LLL	.	.	.	.	.	.	.	.	.	.	.	.	.	.	.	.	.
.	.	.	32f/JJJ)	.	32ff\JJJ)	.	.	.	.	.	.	.	.	.	.	.	.	.	.	.	.	.
8G\J	.	.	32e/LLL	.	(32ee\LLL	.	.	.	.	.	.	.	.	.	.	.	.	.	.	.	.	.
.	.	.	(32d/	.	32dd\	.	.	.	.	.	.	.	.	.	.	.	.	.	.	.	.	.
.	.	.	32c/)	.	32cc\	.	.	.	.	.	.	.	.	.	.	.	.	.	.	.	.	.
.	.	.	32Bn/JJJ	.	32bn\JJJ)	.	.	.	.	.	.	.	.	.	.	.	.	.	.	.	.	.
=39	=39	=39	=39	=39	=39	=39	=39	=39	=39	=39	=39	=39	=39	=39	=39	=39	=39	=39	=39	=39	=39	=39
8A\L	x	.	(16d/LL	.	(16dd\LL	.	.	.	.	.	.	.	.	.	4e/	.	4cc\	.	4ee\	.	4ccc\	.
.	.	.	16c/J)	.	16cc\J)	.	.	.	.	.	.	.	.	.	.	.	.	.	.	.	.	.
8A\	.	.	8c|/J	.	8cc|\J	.	.	.	.	.	.	.	.	.	.	.	.	.	.	.	.	.
8E\	6 r-5	.	16r	.	16r	.	.	.	.	.	.	.	.	.	4cc\	.	4ee\	.	4ee\	.	4gg\	.
.	.	.	(16c/LL	.	(16cc\LL	.	.	.	.	.	.	.	.	.	.	.	.	.	.	.	.	.
8E\J	.	.	16B/	.	16b\	.	.	.	.	.	.	.	.	.	.	.	.	.	.	.	.	.
.	.	.	16B-X/JJ)	.	16b-X\JJ)	.	.	.	.	.	.	.	.	.	.	.	.	.	.	.	.	.
=40	=40	=40	=40	=40	=40	=40	=40	=40	=40	=40	=40	=40	=40	=40	=40	=40	=40	=40	=40	=40	=40	=40
!LO:TX:t=P:problem=mixed beam	!	!	!	!	!	!	!	!	!	!	!	!	!	!	!	!	!	!	!	!	!	!
8F\L	6 3	.	8A/L	.	(16a\LL	.	.	.	.	.	2r	.	.	.	4dd\	.	4ff\	.	4dd\	.	4ff\	.
.	.	.	.	.	16cc\)	.	.	.	.	.	.	.	.	.	.	.	.	.	.	.	.	.
8F\	.	.	(16a/L	.	(16ff\	.	.	.	.	.	.	.	.	.	.	.	.	.	.	.	.	.
.	.	.	16f/JJ)	.	16dd\JJ)	.	.	.	.	.	.	.	.	.	.	.	.	.	.	.	.	.
8G\	4	.	8e/L	.	(16dd\LL	.	.	.	.	.	.	.	.	.	8cc\L	.	8ee\L	.	8cc\L	.	8ee\L	.
.	.	.	.	.	16cc\)	.	.	.	.	.	.	.	.	.	.	.	.	.	.	.	.	.
8GG/J	n	.	8d/J	.	(16cc\	.	.	.	.	.	.	.	.	.	8g\J	.	8dd\J	.	8b\J	.	8dd\J	.
.	.	.	.	.	16bn\JJ)	.	.	.	.	.	.	.	.	.	.	.	.	.	.	.	.	.
!	!	!	!	!	!	!	!	!	!	!	!	!	!	!	!	!	!	!	!LO:LB:g=original	!	!LO:LB:g=original	!
=41	=41	=41	=41	=41	=41	=41	=41	=41	=41	=41	=41	=41	=41	=41	=41	=41	=41	=41	=41	=41	=41	=41
*	*	*	*	*	*	*	*	*	*	*	*	*	*	*	*	*	*	*	*2\right	*	*2\right	*
!LO:TX:a:i:t=tutti	!	!	!	!	!	!	!	!	!	!	!	!	!	!	!	!LO:DY:a:rj	!	!LO:DY:a:t=f.	!	!LO:DY:a:rj	!	!LO:DY:a:rj
8C/L	.	.	8e/L	.	8cc\L	.	4.C/	A-	4.G/	A-	4.e\	A-	4.cc\	A-	4e/	f	4cc\	f	2cc\	f	2ee\	f
8C/	.	.	8e/	.	16ee\L	.	.	.	.	.	.	.	.	.	.	.	.	.	.	.	.	.
.	.	.	.	.	16gg\JJ	.	.	.	.	.	.	.	.	.	.	.	.	.	.	.	.	.
8C/	.	.	8g/	.	(16ff\LL	.	.	.	.	.	.	.	.	.	4cc\	.	4ee\	.	.	.	.	.
.	.	.	.	.	16ee\)	.	.	.	.	.	.	.	.	.	.	.	.	.	.	.	.	.
8E/J	6	.	8g/J	.	(16dd\	.	8E\	-gnus	8G/	-gnus	8e\	-gnus	8cc\	-gnus	.	.	.	.	.	.	.	.
.	.	.	.	.	16cc\JJ)	.	.	.	.	.	.	.	.	.	.	.	.	.	.	.	.	.
!	!	!	!	!	!	!	!	!	!	!	!	!	!	!	!	!	!LO:LB:g=original	!	!	!	!	!
=42	=42	=42	=42	=42	=42	=42	=42	=42	=42	=42	=42	=42	=42	=42	=42	=42	=42	=42	=42	=42	=42	=42
8F\L	6_ 5_	.	8a/L	.	(16aa\LL	.	4F\	De-	4A\	De-	4d\	De-	4cc\	De-	2cc\	.	2dd\	.	2cc\	.	2dd\	.
.	.	.	.	.	16ff\J)	.	.	.	.	.	.	.	.	.	.	.	.	.	.	.	.	.
8F\	.	.	8a/	.	8dd|\J	.	.	.	.	.	.	.	.	.	.	.	.	.	.	.	.	.
8F\	.	.	8a/	.	16r	.	8F\	-i	8A\	-i	8d\	-i	8cc\	-i	.	.	.	.	.	.	.	.
.	.	.	.	.	16dd\	.	.	.	.	.	.	.	.	.	.	.	.	.	.	.	.	.
!	!	!	!	!	!LO:LB:g=original	!	!	!	!	!	!	!	!	!	!	!	!	!	!	!	!	!
8F\J	.	.	8a/J	.	(32ff\LLL	.	8F\	qui	8A\	qui	8d\	qui	8cc\	qui	.	.	.	.	.	.	.	.
.	.	.	.	.	32ee\)	.	.	.	.	.	.	.	.	.	.	.	.	.	.	.	.	.
.	.	.	.	.	(32dd\	.	.	.	.	.	.	.	.	.	.	.	.	.	.	.	.	.
.	.	.	.	.	32cc\JJJ)	.	.	.	.	.	.	.	.	.	.	.	.	.	.	.	.	.
=43	=43	=43	=43	=43	=43	=43	=43	=43	=43	=43	=43	=43	=43	=43	=43	=43	=43	=43	=43	=43	=43	=43
!	!	!	!LO:TX:t=P:problem=mixed beam	!	!	!	!	!	!	!	!	!	!	!	!	!	!	!	!	!	!	!
8G\L	3_	.	8d/L	.	(16cc\LL	.	4G\	tol-	4G/	tol-	4d\	tol-	4b\	tol-	2g/	.	2dd\	.	2b\	.	2dd\	.
.	.	.	.	.	16b\)	.	.	.	.	.	.	.	.	.	.	.	.	.	.	.	.	.
8G\	.	.	8d/	.	(16b\	.	.	.	.	.	.	.	.	.	.	.	.	.	.	.	.	.
.	.	.	.	.	16cc\JJ)	.	.	.	.	.	.	.	.	.	.	.	.	.	.	.	.	.
8G\	.	.	8b\	.	(16dd\LL	.	8G\	-lis	8G/	-lis	8d\	-lis	8b\	-lis	.	.	.	.	.	.	.	.
.	.	.	.	.	16ee\)	.	.	.	.	.	.	.	.	.	.	.	.	.	.	.	.	.
8G\J	.	.	8b\J	.	(16ff\	.	8G\	pec-	8G/	pec-	8d\	pec-	8b\	pec-	.	.	.	.	.	.	.	.
.	.	.	.	.	16dd\JJ)	.	.	.	.	.	.	.	.	.	.	.	.	.	.	.	.	.
!	!	!	!LO:LB:g=original	!	!	!	!	!	!	!	!	!	!LO:LB:g=original	!	!LO:LB:g=original	!	!	!	!	!	!	!
=44	=44	=44	=44	=44	=44	=44	=44	=44	=44	=44	=44	=44	=44	=44	=44	=44	=44	=44	=44	=44	=44	=44
!LO:TX:t=P:problem=mixed beam	!	!	!	!	!	!	!	!	!	!	!	!	!	!	!	!	!	!	!	!	!	!
8c\L	x	.	8g/L	.	(16dd\LL	.	8c\	-ca-	8G/	-ca-	8e\	-ca-	8cc\	-ca-	2e/	.	2cc\	.	4cc\	.	4ee\	.
.	.	.	.	.	16ee\J)	.	.	.	.	.	.	.	.	.	.	.	.	.	.	.	.	.
8C/J	.	.	8g/J	.	8ee|\J	.	8C/	-ta	8G/	-ta	8e\	-ta	8cc\	-ta	.	.	.	.	.	.	.	.
!	!	!	!	!	!	!	!	!	!LO:LB:g=original	!	!LO:LB:g=original	!	!	!	!	!	!	!	!	!	!	!
4E\	6	.	8g/L	.	16r	.	4E\	qui	4c\	qui	4f\	qui	4cc\	qui	.	.	.	.	4cc\	.	4gg\	.
.	.	.	.	.	16gg\	.	.	.	.	.	.	.	.	.	.	.	.	.	.	.	.	.
.	.	.	8g/J	.	(32ff\LLL	.	.	.	.	.	.	.	.	.	.	.	.	.	.	.	.	.
.	.	.	.	.	32ee\)	.	.	.	.	.	.	.	.	.	.	.	.	.	.	.	.	.
.	.	.	.	.	(32dd\	.	.	.	.	.	.	.	.	.	.	.	.	.	.	.	.	.
.	.	.	.	.	32cc\JJJ)	.	.	.	.	.	.	.	.	.	.	.	.	.	.	.	.	.
!	!	!	!	!	!	!	!LO:LB:g=original	!	!	!	!	!	!	!	!	!	!	!	!	!	!	!
=45	=45	=45	=45	=45	=45	=45	=45	=45	=45	=45	=45	=45	=45	=45	=45	=45	=45	=45	=45	=45	=45	=45
4F\	4 2	.	8g/L	.	(16cc\LL	.	4F\	tol-	4d\	tol-	4f\	tol-	4b\	tol-	4g/	.	4dd\	.	4b\	.	2gg\	.
.	.	.	.	.	16b\J)	.	.	.	.	.	.	.	.	.	.	.	.	.	.	.	.	.
.	.	.	8g/	.	8b|\J	.	.	.	.	.	.	.	.	.	.	.	.	.	.	.	.	.
4E\	6	.	8g/	.	16r	.	8E\	-lis	8c\	-lis	8g\	-lis	8cc\	-lis	4cc\	.	4ee\	.	4cc\	.	.	.
.	.	.	.	.	16gg\	.	.	.	.	.	.	.	.	.	.	.	.	.	.	.	.	.
*	*	*	*	*	*	*	*	*	*	*ij	*	*ij	*	*ij	*	*	*	*	*	*	*	*
.	.	.	8g/J	.	(32ff\LLL	.	8E\	qui	8c\	qui	8g\	qui	8cc\	qui	.	.	.	.	.	.	.	.
.	.	.	.	.	32ee\)	.	.	.	.	.	.	.	.	.	.	.	.	.	.	.	.	.
.	.	.	.	.	(32dd\	.	.	.	.	.	.	.	.	.	.	.	.	.	.	.	.	.
.	.	.	.	.	32cc\JJJ)	.	.	.	.	.	.	.	.	.	.	.	.	.	.	.	.	.
!LO:LB:g=original	!	!	!	!	!	!	!	!	!	!	!	!	!	!	!	!	!	!	!	!	!	!
=46	=46	=46	=46	=46	=46	=46	=46	=46	=46	=46	=46	=46	=46	=46	=46	=46	=46	=46	=46	=46	=46	=46
4F\	4 2	.	8g/L	.	(16cc\LL	.	4F\	tol-	4d\	tol-	4g\	tol-	4b\	tol-	4g/	.	4dd\	.	4b\	.	2gg\	.
.	.	.	.	.	16b\J)	.	.	.	.	.	.	.	.	.	.	.	.	.	.	.	.	.
.	.	.	8g/	.	8b|\J	.	.	.	.	.	.	.	.	.	.	.	.	.	.	.	.	.
!	!	!	!	!	!LO:LB:g=original	!	!	!	!	!	!	!	!	!	!	!	!	!	!	!	!	!
4E\	6	.	8g/	.	16r	.	8E\	-lis	8c\	-lis	8g\	-lis	8cc\	-lis	4cc\	.	4ee\	.	4cc\	.	.	.
*	*	*	*	*	*	*	*	*	*	*Xij	*	*Xij	*	*Xij	*	*	*	*	*	*	*	*
.	.	.	.	.	16gg\	.	.	.	.	.	.	.	.	.	.	.	.	.	.	.	.	.
.	.	.	8g/J	.	(32ff\LLL	.	8E\	pec-	8c\	pec-	8g\	pec-	8cc\	pec-	.	.	.	.	.	.	.	.
.	.	.	.	.	32ee\)	.	.	.	.	.	.	.	.	.	.	.	.	.	.	.	.	.
.	.	.	.	.	(32dd\	.	.	.	.	.	.	.	.	.	.	.	.	.	.	.	.	.
.	.	.	.	.	32cc\JJJ)	.	.	.	.	.	.	.	.	.	.	.	.	.	.	.	.	.
=47	=47	=47	=47	=47	=47	=47	=47	=47	=47	=47	=47	=47	=47	=47	=47	=47	=47	=47	=47	=47	=47	=47
8A\L	7	.	16g/LL	.	16cc\LL	.	8A\	-ca-	8e\	-ca-	8g\	-ca-	8cc\	-ca-	4cc\	.	4ee\	.	2cc\	.	4gg\	.
.	.	.	16g/	.	16cc\	.	.	.	.	.	.	.	.	.	.	.	.	.	.	.	.	.
8A\	.	.	16g/	.	16cc\	.	8A\	-ta	8e\	-ta	8g\	-ta	8cc\	-ta	.	.	.	.	.	.	.	.
.	.	.	16g/JJ	.	16cc\JJ	.	.	.	.	.	.	.	.	.	.	.	.	.	.	.	.	.
*	*	*	*tremolo	*	*tremolo	*	*	*	*	*	*	*	*	*	*	*	*	*	*	*	*	*
8A\	6\	.	16f#X/LL	.	16cc\LL	.	4A\	mun-	4d\	mun-	4f#X\	mun-	4cc\	mun-	4dd\	.	4dd\	.	.	.	4ff#X\	.
.	.	.	16f#/	.	16cc\	.	.	.	.	.	.	.	.	.	.	.	.	.	.	.	.	.
8A\J	.	.	16f#/	.	16cc\	.	.	.	.	.	.	.	.	.	.	.	.	.	.	.	.	.
.	.	.	16f#/JJ	.	16cc\JJ	.	.	.	.	.	.	.	.	.	.	.	.	.	.	.	.	.
*	*	*	*Xtremolo	*	*Xtremolo	*	*	*	*	*	*	*	*	*	*	*	*	*	*	*	*	*
=48	=48	=48	=48	=48	=48	=48	=48	=48	=48	=48	=48	=48	=48	=48	=48	=48	=48	=48	=48	=48	=48	=48
4G\	.	.	4g/	.	4b\	.	4G\	-di	4d\	-di	4g\	-di	4b\	-di	4g/	.	4dd\	.	4b\	.	4gg\	.
!	!	!	!LO:TX:b:i:t=Verte Dona	!	!	!	!	!	!	!	!	!	!	!	!	!	!	!	!	!	!	!
4r	.	.	4r	.	4r	.	4r	.	4r	.	4r	.	4r	.	4r	.	4r	.	4r	.	4r	.
==	==	==	==	==	==	==	==	==	==	==	==	==	==	==	==	==	==	==	==	==	==	==
*-	*-	*-	*-	*-	*-	*-	*-	*-	*-	*-	*-	*-	*-	*-	*-	*-	*-	*-	*-	*-	*-	*-
!!!system-decoration: [(g1)][(g2)][(g3)][(g4)]<s11>
!!!RDF**kern: > = above
!!!RDF**kern: < = below
!!!RDF**kern: | = vertical stroke
!!!RDF**dynam: f = "f:"
!!!RDF**dynam: p = "p:"
!!!AIN: 1 alto 1 bass 2 cor 2 oboe 1 organ 1 soprn 1 tenor 2 violn
!!!ENC: Marcin Jachim
!!!END: 2020-07-17
!!!ENC: Andrzej Kubiczek
!!!END: 2021-11-28
